symbolic/32x32/apps/plasma.svg

<svg xmlns="http://www.w3.org/2000/svg" width="32" height="32" version="1">
 <circle style="opacity:0.2" cx="16" cy="17" r="14"/>
 <path style="fill:#1ab5bc" d="M 16,2 C 8.244,2 2,8.244 2,16 2,18.571988 2.6866337,20.977706 3.8873419,23.044594 18.342164,23.546283 25.8,7.6 26.287795,6.4859066 23.733799,3.7241796 20.075657,2 16,2 Z"/>
 <path style="fill:#df5b6f" d="M 29.096289,11.071289 9.9761717,18.316016 23.117578,28.053125 C 27.238537,25.621816 30,21.150259 30,16 30,14.260804 29.670868,12.605073 29.096289,11.071289 Z"/>
 <path style="fill:#445c5c" d="M 9.9994138,18.254492 3.7896484,22.856445 C 6.1828963,27.123748 10.740262,30 16,30 c 2.638586,0 5.09322,-0.735734 7.195508,-1.994726 z"/>
 <path style="fill:#9f327b" d="M 26.137695,6.3435546 9.9775388,18.317383 29.096289,11.071289 C 28.430359,9.2936514 27.420697,7.6905401 26.137695,6.3435546 Z"/>
 <path style="opacity:0.2" d="M 11.5,7 C 10.669,7 10,7.669 10,8.5 10,9.331 10.669,10 11.5,10 12.331,10 13,9.331 13,8.5 13,7.669 12.331,7 11.5,7 Z M 18.857422,7 16,9.8007812 20.285156,14 16,18.199219 18.857422,21 23.142578,16.800781 26,14 23.142578,11.199219 Z M 8,14 c -1.107992,0 -2,0.891992 -2,2 0,1.107992 0.892008,2 2,2 1.108008,0 2,-0.892008 2,-2 0,-1.108008 -0.891992,-2 -2,-2 z m 5.5,8 C 12.115,22 11,23.115 11,24.5 11,25.885 12.115,27 13.5,27 14.885,27 16,25.885 16,24.5 16,23.115 14.885,22 13.5,22 Z"/>
 <path style="fill:#ffffff" d="M 11.5 6 C 10.669 6 10 6.669 10 7.5 C 10 8.331 10.669 9 11.5 9 C 12.331 9 13 8.331 13 7.5 C 13 6.669 12.331 6 11.5 6 z M 18.857422 6 L 16 8.8007812 L 20.285156 13 L 16 17.199219 L 18.857422 20 L 23.142578 15.800781 L 26 13 L 23.142578 10.199219 L 18.857422 6 z M 8 13 C 6.892008 13 6 13.891992 6 15 C 6 16.107992 6.892008 17 8 17 C 9.108008 17 10 16.107992 10 15 C 10 13.891992 9.108008 13 8 13 z M 13.5 21 C 12.115 21 11 22.115 11 23.5 C 11 24.885 12.115 26 13.5 26 C 14.885 26 16 24.885 16 23.5 C 16 22.115 14.885 21 13.5 21 z"/>
 <path style="opacity:0.2;fill:#ffffff" d="M 16 2 A 14 14 0 0 0 2 16 A 14 14 0 0 0 2.0214844 16.585938 A 14 14 0 0 1 16 3 A 14 14 0 0 1 29.978516 16.414062 A 14 14 0 0 0 30 16 A 14 14 0 0 0 16 2 z"/>
</svg>

<svg xmlns="http://www.w3.org/2000/svg" width="32" height="32" version="1"><circle style="opacity:.2" cx="16" cy="17" r="14"/><path style="fill:#1ab5bc" d="M16 2C8.244 2 2 8.244 2 16c0 2.572.687 4.978 1.887 7.045 14.455.501 21.913-15.445 22.4-16.56A13.957 13.957 0 0 0 16 2z"/><path style="fill:#df5b6f" d="m29.096 11.071-19.12 7.245 13.142 9.737C27.238 25.622 30 21.15 30 16c0-1.74-.33-3.395-.904-4.929z"/><path style="fill:#445c5c" d="m10 18.254-6.21 4.602A13.96 13.96 0 0 0 16 30a13.95 13.95 0 0 0 7.196-1.995z"/><path style="fill:#9f327b" d="M26.138 6.344 9.978 18.317l19.118-7.246a13.937 13.937 0 0 0-2.958-4.727z"/><path style="opacity:.2" d="M11.5 7c-.831 0-1.5.669-1.5 1.5s.669 1.5 1.5 1.5S13 9.331 13 8.5 12.331 7 11.5 7zm7.357 0L16 9.8l4.285 4.2L16 18.2l2.857 2.8 4.286-4.2L26 14l-2.857-2.8zM8 14c-1.108 0-2 .892-2 2s.892 2 2 2 2-.892 2-2-.892-2-2-2zm5.5 8a2.495 2.495 0 0 0-2.5 2.5c0 1.385 1.115 2.5 2.5 2.5s2.5-1.115 2.5-2.5-1.115-2.5-2.5-2.5z"/><path style="fill:#fff" d="M11.5 6c-.831 0-1.5.669-1.5 1.5S10.669 9 11.5 9 13 8.331 13 7.5 12.331 6 11.5 6zm7.357 0L16 8.8l4.285 4.2L16 17.2l2.857 2.8 4.286-4.2L26 13l-2.857-2.8L18.857 6zM8 13c-1.108 0-2 .892-2 2s.892 2 2 2 2-.892 2-2-.892-2-2-2zm5.5 8a2.495 2.495 0 0 0-2.5 2.5c0 1.385 1.115 2.5 2.5 2.5s2.5-1.115 2.5-2.5-1.115-2.5-2.5-2.5z"/><path style="opacity:.2;fill:#fff" d="M16 2A14 14 0 0 0 2 16a14 14 0 0 0 .021.586A14 14 0 0 1 16 3a14 14 0 0 1 13.979 13.414A14 14 0 0 0 30 16 14 14 0 0 0 16 2z"/></svg>
